geofa_plugin/geofa_symboler/Friluftsliv, punkt/VANDPOST.svg

<svg xmlns="http://www.w3.org/2000/svg" width="5.5mm" height="5.5mm" viewBox="0 0 15.591 15.591">
  <rect width="15.591" height="15.591" rx="7.795" fill="#0072bc"/>
  <g>
    <path d="M4.362,10.075a5.969,5.969,0,0,1-.446.66,2.226,2.226,0,0,0-.587,1.19A1.084,1.084,0,0,0,4.362,13.05,1.083,1.083,0,0,0,5.4,11.925a2.231,2.231,0,0,0-.586-1.19A5.978,5.978,0,0,1,4.362,10.075Z" fill="#fff"/>
    <path d="M12.27,4.287h-.943a.511.511,0,0,0-.51.51v.085H9.093V4.517a.135.135,0,0,0-.135-.135H8.551V3.7A.622.622,0,0,0,8.643,3.6l1.236.127a.539.539,0,0,0,.421-.937.536.536,0,0,0-.421-.133l-1.236.127a.655.655,0,0,0-1.025,0L6.382,2.661a.538.538,0,0,0-.42.937.543.543,0,0,0,.42.133L7.618,3.6A.735.735,0,0,0,7.71,3.7v.685H7.3a.136.136,0,0,0-.136.135v.365H6.487a3.094,3.094,0,0,0-3.1,3.1v.076H3.32a.136.136,0,0,0-.135.135V9.218a.135.135,0,0,0,.135.135H5.433a.134.134,0,0,0,.135-.135V8.192a.135.135,0,0,0-.135-.135H5.365V7.981A1.124,1.124,0,0,1,6.487,6.858h.355a1.493,1.493,0,0,0,.5.521,1.479,1.479,0,0,0,1.584,0,1.491,1.491,0,0,0,.5-.521h1.4v.085a.511.511,0,0,0,.51.51h.943a.136.136,0,0,0,.136-.135V4.423A.136.136,0,0,0,12.27,4.287Z" fill="#fff"/>
  </g>
</svg>

<?xml version="1.0" encoding="UTF-8"?>
<svg xmlns="http://www.w3.org/2000/svg" viewBox="0 0 15.59 15.59">
  <defs>
    <style>
      .cls-1 {
        fill: #071f39;
      }

      .cls-1, .cls-2 {
        stroke-width: 0px;
      }

      .cls-2 {
        fill: #fff;
      }
    </style>
  </defs>
  <g id="Cirkel">
    <rect class="cls-1" x="0" y="0" width="15.59" height="15.59" rx="7.8" ry="7.8"/>
  </g>
  <g id="ICONS">
    <g>
      <path class="cls-2" d="M4.36,10.07c-.13.23-.29.45-.45.66-.3.41-.59.79-.59,1.19,0,.62.46,1.12,1.03,1.12s1.03-.5,1.03-1.12c0-.4-.28-.78-.59-1.19-.16-.21-.32-.43-.45-.66Z"/>
      <path class="cls-2" d="M12.27,4.29h-.94c-.28,0-.51.23-.51.51v.08h-1.72v-.36c0-.07-.06-.14-.14-.14h-.41v-.68s.06-.06.09-.09l1.24.13c.15.02.31-.03.42-.13.11-.1.18-.25.18-.4s-.07-.3-.18-.4-.27-.15-.42-.13l-1.24.13c-.12-.15-.31-.25-.51-.25s-.39.09-.51.25l-1.24-.13c-.15-.02-.31.03-.42.13-.11.1-.18.25-.18.4s.07.3.18.4c.11.1.27.15.42.13l1.24-.13s.06.07.09.09v.68h-.41c-.07,0-.14.06-.14.14v.36h-.68c-.42,0-.82.08-1.21.24-.37.16-.7.38-.98.66-.28.28-.51.62-.66.98-.16.38-.24.79-.24,1.21v.08h-.07c-.07,0-.14.06-.14.14v1.03c0,.07.06.14.14.14h2.11c.07,0,.14-.06.14-.14v-1.03c0-.07-.06-.14-.14-.14h-.07v-.08c0-.62.5-1.12,1.12-1.12h.36c.12.21.29.39.5.52.24.15.51.23.79.23s.56-.08.79-.23c.21-.13.38-.31.5-.52h1.4v.08c0,.28.23.51.51.51h.94c.07,0,.14-.06.14-.14v-2.89c0-.07-.06-.14-.14-.14Z"/>
    </g>
  </g>
</svg>
